libs/icons/src/svg/stack.svg

<svg width="16" height="16" viewBox="0 0 16 16" fill="none" xmlns="http://www.w3.org/2000/svg">
<g clip-path="url(#clip0_3_3778)">
<path fill-rule="evenodd" clip-rule="evenodd" d="M7.65698 0.0950047C7.8681 -0.0316682 8.13185 -0.0316682 8.34298 0.0950047L15.0096 4.095C15.2104 4.21549 15.3333 4.43249 15.3333 4.66667C15.3333 4.90084 15.2104 5.11785 15.0096 5.23833L8.34298 9.23833C8.13185 9.365 7.8681 9.365 7.65698 9.23833L0.990316 5.23833C0.789512 5.11785 0.666646 4.90084 0.666646 4.66667C0.666646 4.43249 0.789512 4.21549 0.990316 4.095L7.65698 0.0950047ZM2.62908 4.66667L7.99998 7.88921L13.3709 4.66667L7.99998 1.44413L2.62908 4.66667ZM0.76167 7.65702C0.951103 7.3413 1.36061 7.23893 1.67633 7.42836L8 11.2226L14.3237 7.42836C14.6394 7.23893 15.0489 7.3413 15.2383 7.65702C15.4278 7.97274 15.3254 8.38225 15.0097 8.57168L8.343 12.5717C8.13187 12.6984 7.86812 12.6984 7.657 12.5717L0.990335 8.57168C0.674615 8.38225 0.572238 7.97274 0.76167 7.65702ZM1.67633 10.7617C1.36061 10.5723 0.951103 10.6746 0.76167 10.9904C0.572238 11.3061 0.674615 11.7156 0.990335 11.905L7.657 15.905C7.86812 16.0317 8.13187 16.0317 8.343 15.905L15.0097 11.905C15.3254 11.7156 15.4278 11.3061 15.2383 10.9904C15.0489 10.6746 14.6394 10.5723 14.3237 10.7617L8 14.5559L1.67633 10.7617Z" fill="#202327"/>
</g>
<defs>
<clipPath id="clip0_3_3778">
<rect width="16" height="16" fill="white"/>
</clipPath>
</defs>
</svg>

<svg xmlns="http://www.w3.org/2000/svg" viewBox="0 0 16 16" class="sageicon"><path fill-rule="evenodd" d="M7.657.095a.667.667 0 0 1 .686 0l6.667 4a.667.667 0 0 1 0 1.143l-6.667 4a.667.667 0 0 1-.686 0l-6.667-4a.667.667 0 0 1 0-1.143l6.667-4ZM2.629 4.667 8 7.889l5.37-3.222L8 1.444 2.63 4.667ZM.762 7.657a.667.667 0 0 1 .914-.229L8 11.223l6.324-3.795a.667.667 0 1 1 .686 1.144l-6.667 4a.667.667 0 0 1-.686 0l-6.667-4a.667.667 0 0 1-.228-.915Zm.914 3.105a.667.667 0 1 0-.686 1.143l6.667 4a.667.667 0 0 0 .686 0l6.667-4a.667.667 0 1 0-.686-1.143L8 14.556l-6.324-3.794Z"/></svg>
